local/share/icons/dracula-icons-main/scalable/apps/google-chrome.svg

<?xml version="1.0" encoding="UTF-8"?>
<svg xmlns="http://www.w3.org/2000/svg" xmlns:xlink="http://www.w3.org/1999/xlink" width="64" height="64" viewBox="0 0 64 64">
<path fill-rule="evenodd" fill="rgb(85.882353%, 26.666667%, 21.568627%)" fill-opacity="1" d="M 8.464844 1.324219 C 6.121094 1.324219 4.050781 2.445312 2.75 4.183594 L 6.320312 9.539062 L 10.964844 10.464844 L 8.824219 5.25 L 14.84375 5.25 C 13.671875 2.917969 11.265625 1.324219 8.464844 1.324219 Z M 8.464844 1.324219 "/>
<path fill-rule="evenodd" fill="rgb(5.882353%, 61.568627%, 34.509804%)" fill-opacity="1" d="M 2.753906 4.179688 C 1.824219 5.421875 1.320312 6.933594 1.324219 8.488281 C 1.324219 12.445312 4.507812 15.609375 8.46875 15.609375 L 10.96875 10.488281 L 6.324219 9.539062 Z M 2.753906 4.179688 "/>
<path fill-rule="evenodd" fill="rgb(100%, 80.392157%, 25.098039%)" fill-opacity="1" d="M 8.824219 5.25 L 10.964844 10.464844 L 8.464844 15.609375 C 10.363281 15.613281 12.179688 14.863281 13.523438 13.519531 C 14.863281 12.179688 15.613281 10.359375 15.609375 8.464844 C 15.609375 7.304688 15.332031 6.214844 14.84375 5.25 Z M 8.824219 5.25 "/>
<path fill-rule="nonzero" fill="rgb(100%, 100%, 100%)" fill-opacity="1" d="M 8.46875 5.023438 C 10.375 5.023438 11.910156 6.558594 11.910156 8.464844 C 11.910156 10.371094 10.375 11.902344 8.46875 11.902344 C 6.5625 11.902344 5.027344 10.371094 5.027344 8.464844 C 5.027344 6.558594 6.5625 5.023438 8.46875 5.023438 Z M 8.46875 5.023438 "/>
<path fill-rule="nonzero" fill="rgb(14.509804%, 40%, 82.745098%)" fill-opacity="1" d="M 8.46875 5.820312 C 9.933594 5.820312 11.113281 7 11.113281 8.464844 C 11.113281 9.929688 9.933594 11.109375 8.46875 11.109375 C 7.765625 11.113281 7.09375 10.832031 6.597656 10.335938 C 6.101562 9.839844 5.820312 9.167969 5.824219 8.464844 C 5.824219 7 7.003906 5.820312 8.46875 5.820312 Z M 8.46875 5.820312 "/>
</svg>

<svg width="64" height="64" version="1.1" viewBox="0 0 16.933 16.933" xmlns="http://www.w3.org/2000/svg">
 <g transform="matrix(1.0001 0 0 1 .0019958 -.001996)">
  <g fill-rule="evenodd" stroke-width=".28962">
   <path d="m8.4624 1.3248c-2.3452 0-4.4126 1.1239-5.7136 2.8589l3.5705 5.3564 4.6433 0.92842-2.1431-5.215h6.021c-1.1729-2.332-3.5798-3.9287-6.3783-3.9287z" fill="#db4437"/>
   <path d="m2.7511 4.182a7.1828 7.1828 0 0 0-1.4304 4.3085c0 3.9576 3.1861 7.1212 7.1437 7.1212l2.5001-5.1209-4.6433-0.95127z" fill="#0f9d58"/>
   <path d="m8.8203 5.2526 2.1428 5.215-2.5001 5.1431a7.1278 7.1278 0 0 0 7.1437-7.1434c0-1.1594-0.2797-2.2487-0.76541-3.215z" fill="#ffcd40"/>
  </g>
  <path d="m8.4659 5.0273c1.9053 0 3.4392 1.534 3.4392 3.4394 0 1.9054-1.5338 3.4394-3.4392 3.4394-1.9053 0-3.4392-1.534-3.4392-3.4394 0-1.9054 1.5338-3.4394 3.4392-3.4394z" fill="#fff" stroke-width=".27889"/>
  <path d="m8.4659 5.821c1.4659 0 2.6455 1.18 2.6455 2.6457 0 1.4657-1.1796 2.6457-2.6455 2.6457a2.6396 2.6398 0 0 1-2.6455-2.6457c0-1.4657 1.1799-2.6457 2.6455-2.6457z" fill="#2566d3" stroke-width=".27889"/>
 </g>
</svg>
